toolkits/global/packages/global-context/img/icons/explore.svg

<svg height="24" viewBox="0 0 24 24" width="24" xmlns="http://www.w3.org/2000/svg"><path d="m12 20c4.418278 0 8-3.581722 8-8s-3.581722-8-8-8-8 3.581722-8 8 3.581722 8 8 8zm0 1c-4.97056275 0-9-4.0294373-9-9 0-4.97056275 4.02943725-9 9-9 4.9705627 0 9 4.02943725 9 9 0 4.9705627-4.0294373 9-9 9zm0-2.5c-.2761424 0-.5-.2238576-.5-.5s.2238576-.5.5-.5c2.969509 0 5.400504-2.3575119 5.497023-5.3171484.0090007-.2759957.2400359-.4924379.5160315-.4834372.2759957.0090008.4924378.2400359.4834371.5160316-.114093 3.4985237-2.9869632 6.284554-6.4964916 6.284554zm-.2909066-12.99359748c.2758743-.01216621.5093772.20161139.5215434.47748563.0121662.27587423-.2016114.50937715-.4774856.52154336-2.93195737.12930094-5.2531512 2.54886451-5.2531512 5.49456849 0 .2761424-.22385763.5-.5.5s-.5-.2238576-.5-.5c0-3.48142406 2.74307146-6.34074398 6.2090934-6.49359748zm1.1378414 8.04763908-1.2004882-1.2004882c-.1952621-.1952622-.1952621-.5118446 0-.7071068.1952622-.1952621.5118446-.1952621.7071068 0l1.2004882 1.2004882 1.6006509-4.00162733-4.5067036 1.80268143-1.80268143 4.5067036zm4.1028127-6.50378907-2.6692597 6.67314927c-.1016411.2541026-.3029834.4554449-.557086.557086l-6.67314927 2.6692597 2.66925969-6.6731493c.10164107-.2541026.30298338-.45544491.55708598-.55708598z" fill="#666" fill-rule="evenodd"/></svg>

<?xml version="1.0" encoding="UTF-8"?>
<svg width="24px" height="24px" viewBox="0 0 24 24" version="1.1" xmlns="http://www.w3.org/2000/svg" xmlns:xlink="http://www.w3.org/1999/xlink">
    <!-- Generator: Sketch 63.1 (92452) - https://sketch.com -->
    <title>icon-icon / explore</title>
    <desc>Created with Sketch.</desc>
    <defs>
        <path d="M12,20 C16.418278,20 20,16.418278 20,12 C20,7.581722 16.418278,4 12,4 C7.581722,4 4,7.581722 4,12 C4,16.418278 7.581722,20 12,20 Z M12,21 C7.02943725,21 3,16.9705627 3,12 C3,7.02943725 7.02943725,3 12,3 C16.9705627,3 21,7.02943725 21,12 C21,16.9705627 16.9705627,21 12,21 Z M12,18.5 C11.7238576,18.5 11.5,18.2761424 11.5,18 C11.5,17.7238576 11.7238576,17.5 12,17.5 C14.969509,17.5 17.400504,15.1424881 17.497023,12.1828516 C17.5060237,11.9068559 17.7370589,11.6904137 18.0130545,11.6994144 C18.2890502,11.7084152 18.5054923,11.9394503 18.4964916,12.215446 C18.3823986,15.7139697 15.5095284,18.5 12,18.5 Z M11.7090934,5.50640252 C11.9849677,5.49423631 12.2184706,5.70801391 12.2306368,5.98388815 C12.242803,6.25976238 12.0290254,6.4932653 11.7531512,6.50543151 C8.82119383,6.63473245 6.5,9.05429602 6.5,12 C6.5,12.2761424 6.27614237,12.5 6,12.5 C5.72385763,12.5 5.5,12.2761424 5.5,12 C5.5,8.51857594 8.24307146,5.65925602 11.7090934,5.50640252 Z M12.8469348,13.5540416 L11.6464466,12.3535534 C11.4511845,12.1582912 11.4511845,11.8417088 11.6464466,11.6464466 C11.8417088,11.4511845 12.1582912,11.4511845 12.3535534,11.6464466 L13.5540416,12.8469348 L15.1546925,8.84530747 L10.6479889,10.6479889 L8.84530747,15.1546925 L12.8469348,13.5540416 L12.8469348,13.5540416 Z M16.9497475,7.05025253 L14.2804878,13.7234018 C14.1788467,13.9775044 13.9775044,14.1788467 13.7234018,14.2804878 L7.05025253,16.9497475 L9.71951222,10.2765982 C9.82115329,10.0224956 10.0224956,9.82115329 10.2765982,9.71951222 L16.9497475,7.05025253 Z" id="path-1"></path>
    </defs>
    <g id="icon-/-explore" stroke="none" stroke-width="1" fill="none" fill-rule="evenodd">
        <mask id="mask-2" fill="white">
            <use xlink:href="#path-1"></use>
        </mask>
        <use id="explore" fill="#666666" xlink:href="#path-1"></use>
    </g>
</svg>
